X:1
T:Leonard Cohen
M:6/8
L:1/8
Q:3/8=66
K:Am
E3 E2 D | C3 z3 | E3 E2 F | E3 z3 |
E2 E E2 D | C2 D E3 | A,3 C2 D | E3 z3 |
E3 E2 E | F2 E D3 | C2 D E2 D | C3 z3 |
A,2 C D2 E | E2 D C2 D | E6 | z6 |
